X:1
T:Title
%%score { ( 1 4 ) | ( 2 3 ) }
L:1/8
Q:1/4=104
M:4/4
K:Bb
V:1 treble nm="Grand Piano"
V:4 treble 
V:2 bass 
V:3 bass 
V:1
 [DF]2 [DF]2 [DF]2 z [DF] | [EG]2 [FG]2 [EG]2 z2 | [DB]2 [DB]2 [DB]2 z [DB] | d2 d2 d2 z2 | %4
w: Geo.~C.~Hugg * * *||||
 d2 [Ff]2 [Fc]3 [^Fd] | [GB]2 [GB]2 [^Fd]4 | [EG]2 [EG]2 A2 A2 | BA [B,=EG]2 [A,F]4 | %8
w: ||||
 [B,FB]2 [DFB]2 [CDA]2 [B,DG]2 | [Gc]2 [Gc]2 BA[B,FG]F | d2 e2 f2 [FB]2 | [Gc]2 [G_d]2 [^F=d]4 | %12
w: ||||
 [_Af]3 [Af] edcB | B2 A2 [DB]4 |] %14
w: ||
V:2
 [B,,B,]2 [B,,B,]2 [B,,B,]2 z [B,,B,] | [E,B,]2 [D,=B,]2 [C,C]2 z2 | %2
 [B,,F,]2 [B,,F,]2 [B,,F,]2 z [B,,B,] | [B,F]2 [A,C^F]2 [G,B,G]2 z2 | %4
 [B,F]2[K:bass] [D,B,]2 [F,A,]3 [D,C] | [G,B,]2 [E,B,]2 [D,D]4 | [E,B,]2 [C,C]2 [F,CE]2 [^F,CE]2 | %7
 [G,=E]2 z2 z4 | D,2 D,2 ^F,2 G,2 | z4 .D2 F,2 | [B,F]2 [A,CF]2 [B,DF]2[K:bass] [D,B,]2 | %11
 [E,B,]2 [=E,B,]2 [D,D]4 | [D,=B,]3 [D,B,] [C,C][D,B,]E,=E, | [F,DF]2 [F,CE]2 [B,,B,]4 |] %14
V:3
 x8 | x8 | x8 | x8 | x2[K:bass] x6 | x8 | x8 | z A, C,2 F,2 E,2 | x8 | %9
 [E,G,]2 [=E,B,]2 [F,F]-[F,CF] z A, | x6[K:bass] x2 | x8 | x8 | x8 |] %14
V:4
 x8 | x8 | x8 | x8 | x8 | x8 | x8 | x8 | x8 | x8 | x8 | x8 | z4 G2 [CG]2 | x8 |] %14

